!!!COM: Mozart, Wolfgang Amadeus
!!!OPR: Quartet in A Major
!!!OTL:
!!!OMV: 1
!!!SCT: K 298
!!!SCA: Chronologisch-thematisches Verzeichnis sämtlicher Tonwerke Wolfgang Amade Mozarts (L. von Köchel; 1862, 2/1905, 3/1937, 1947)
!!!YOR: Breitkopf & Härtel Edition
!!!EED: Frances Bennion
!!!ENC: Frances Bennion
!!!CDT: 1756/1/27/-1791/12/5/
!!!OCY: Österreich
!!!YEC: Copyright (c) 1994, 2000 Center for Computer Assisted Research in the Humanities
!!!YEM: Rights to all derivative editions reserved.
!!!YEM: Refer to licensing agreement for further details.
!!!YEN: United States of America
**kern	**kern	**kern	**kern
*k[f#c#g#]	*k[f#c#g#]	*k[f#c#g#]	*k[f#c#g#]
*A:	*A:	*A:	*A:
*clefG	*clefG	*clefF	*clefC
*M2/2	*M2/2	*M2/2	*M2/2
*tb16	*tb16	*tb16	*tb16
=0-	=0-	=0-	=0-
2.r	2.r	2.r	2.r
4e	4r	4r	4r
=1	=1	=1	=1
4a	1c#	[1e	1A
8a	.	.	.
8b	.	.	.
4cc#	.	.	.
4a	.	.	.
=2	=2	=2	=2
4ee	2.B	1e]	2.G#
8ee	.	.	.
8ff#	.	.	.
4ee	.	.	.
4dd	4g#	.	4E
=3	=3	=3	=3
8dd	4a	4e	4A
8cc#	.	.	.
8b	4r	4r	4r
8a	.	.	.
8a	4.d#	2A	2F#
16b	.	.	.
16a	.	.	.
8g#	.	.	.
8a	8f#	.	.
=4	=4	=4	=4
4b	4B	4G#	4.E
4e	2r	2r	.
.	.	.	8F#
4e	.	.	8E
.	.	.	8C#
4e	4G#	4d	8D
.	.	.	8BB
=5	=5	=5	=5
4a	2.A	2c#	2.AA
8a	.	.	.
8b	.	.	.
4cc#	.	2e	.
4a	4c#	.	4A
=6	=6	=6	=6
4b	4B	4e	4G#
4ee	4r	4r	4r
4ee	4b	4g#	4E
4gg#	4r	4r	4r
=7	=7	=7	=7
4ff#	4cc#	2.e	4A
8ee	8b	.	8G#
8ff#	8cc#	.	8A
4gg#	4b	.	4B
4ff#	4dd#	4a	4BB
=8	=8	=8	=8
2ee	2ee	2g#	4E
.	.	.	4BB
4r	4r	4r	4EE
4ee	4r	4r	4r
=9	=9	=9	=9
4b	4.g#	[1e	1D
8b	.	.	.
8cc#	8a	.	.
4dd	4b	.	.
4b	4g#	.	.
=10	=10	=10	=10
4.ee	2a	2e]	2.C#
8cc#	.	.	.
4a	4e	2c#	.
4a#	4g	.	4E
=11	=11	=11	=11
4b	4f#	4d	4D
4cc#	4a#	4e	4C#
4dd	8b	4f#	4BB
.	8f#	.	.
8cc#	8e	4f#	4D
8b	8d	.	.
=12	=12	=12	=12
4.a	4.c#	[2e	[2E
8b	8d	.	.
4g#	4B	4e]	8E]
.	.	.	8D#
4e	4r	4r	8D
.	.	.	8BB
=13	=13	=13	=13
4a	2c#	2.E	2.AA
8a	.	.	.
8b	.	.	.
4cc#	4A	.	.
4a	4c#	4e	4A
=14	=14	=14	=14
4ee	2.B	[1e	2.G#
8ee	.	.	.
8ff#	.	.	.
4ee	.	.	.
4dd	4g#	.	4E
=15	=15	=15	=15
4cc#	4a	4e]	4A
8a	4d#	4B	4F#
8b	.	.	.
4cc#	4e	4A	4E
4b	4g#	4d	4E
=16	=16	=16	=16
2a	2a	2c#	4A
.	.	.	4E
4r	4r	4r	4AA
4ee	4r	4r	4r
=17	=17	=17	=17
8aa	2cc#	2e	2A
8a	.	.	.
8cc#	.	.	.
8ee	.	.	.
8aa	4r	4r	4r
16aa	.	.	.
16bb	.	.	.
8ccc#	4cc#	4e	4A
16bb	.	.	.
16aa	.	.	.
=18	=18	=18	=18
8bb	[4dd	[1e	4.G#
16bb	.	.	.
16aa	.	.	.
8bb	16dd]	.	.
.	16cc#	.	.
8ccc#	16b	.	8A
.	16a	.	.
4.ddd	8g#	.	4.B
.	8b	.	.
.	8ee	.	.
8bb	8dd	.	8G#
=19	=19	=19	=19
8ddd	4cc#	4e]	4A
8ccc#	.	.	.
8bb	4r	4r	4r
8aa	.	.	.
16bb	2dd#	2a	2F#
16aa	.	.	.
16gg#	.	.	.
16aa	.	.	.
16gg#	.	.	.
16aa	.	.	.
16gg#	.	.	.
16aa	.	.	.
=20	=20	=20	=20
[4bb	8ee	8g#	8E
.	8r	8r	8r
16bb]	8d#	8A	8BB
16gg#	.	.	.
16aa	8r	8r	8r
16ff#	.	.	.
4ee	8e	8G#	8EE
.	8B	8G#	8D
8r	8c#	8A	8C#
8ee	8d	8G#	8BB
=21	=21	=21	=21
8aa	4c#	4A	4AA
8a	.	.	.
8cc#	2r	2r	2r
8ee	.	.	.
8aa	.	.	.
8ccc#	.	.	.
8eee	4cc#	4e	4A
8ccc#	.	.	.
=22	=22	=22	=22
16bb	4ee	4b	4G#
16ee	.	.	.
16ff#	.	.	.
16gg#	.	.	.
16aa	4.r	4.r	4r
16bb	.	.	.
16ccc#	.	.	.
16ddd#	.	.	.
8eee	.	.	2GG#
8ddd	8B	4e	.
8ccc#	8c#	.	.
8bb#	8d	[8e	.
=23	=23	=23	=23
8ccc#	4c#	4e]	4AA
16ddd#	.	.	.
16eee	.	.	.
16ddd#	4ff#	8r	4A
16ccc#	.	.	.
16bb	.	8cc#	.
16aa	.	.	.
4gg#	4ee	4b	4B
4ff#	4dd#	4a	4BB
=24	=24	=24	=24
4ff#	4dd#	4a	4E
4ee	4ee	4g#	4BB
4r	4r	4r	4EE
4bb	4r	4r	4r
=25	=25	=25	=25
8aa#	2.f#	2.d	2.D
8bb	.	.	.
8ccc#	.	.	.
8bb	.	.	.
8ddd	.	.	.
4bb	.	.	.
.	8g#	4e	4d
8gg#	8b	.	.
=26	=26	=26	=26
16aa	4a	4e	4c#
16bb	.	.	.
16aa	.	.	.
16bb	.	.	.
16ccc#	4.r	4.r	2r
16ddd	.	.	.
16ccc#	.	.	.
16ddd	.	.	.
4eee	.	.	.
.	8g	8e	.
4aa#	8f#	8d	4F#
.	8e	8c#	.
=27	=27	=27	=27
8bb	4d	4B	4BB
8b	.	.	.
8dd	2r	2r	2r
8ff#	.	.	.
8bb	.	.	.
8ccc#	.	.	.
8ddd	8ff#	8d	4BB
16ccc#	16ee	8f#	.
16bb	16dd	.	.
=28	=28	=28	=28
4.aa	4.cc#	[2e	4EE
.	.	.	4E
8bb	8dd	.	.
4gg#	8b	8e]	4EE
.	8dd	8b	.
4ee	8cc#	8a	4r
.	8b	8g#	.
=29	=29	=29	=29
8aa	4cc#	4a	4AA
8a	.	.	.
8cc#	2r	2r	2r
8ee	.	.	.
8aa	.	.	.
16aa	.	.	.
16bb	.	.	.
8ccc#	4cc#	4e	4A
16bb	.	.	.
16aa	.	.	.
=30	=30	=30	=30
8bb	[4dd	[1e	4.G#
16bb	.	.	.
16aa	.	.	.
8bb	16dd]	.	.
.	16cc#	.	.
8ccc#	16b	.	8A
.	16a	.	.
4.ddd	8g#	.	4.B
.	8b	.	.
.	8ee	.	.
8bb	8dd	.	8G#
=31	=31	=31	=31
8ccc#	4cc#	4e]	4A
8ddd	.	.	.
8ddd#	4r	4r	2r
8eee	.	.	.
4aa	4ee	4cc#	.
8bb	8dd	4g#	4E
16aa	16cc#	.	.
16bb	16dd	.	.
=32	=32	=32	=32
4bb	4dd	4g#	4A
4aa	4cc#	4a	4E
4r	4r	4r	4AA
4r	16e	4r	4r
.	16f#	.	.
.	16e	.	.
.	16d	.	.
=33	=33	=33	=33
[1ee	16c#	1cc#	4r
.	16e	.	.
.	16f#	.	.
.	16g#	.	.
.	16a	.	4e
.	16g#	.	.
.	16b	.	.
.	16a	.	.
.	16cc#	.	4A
.	16b	.	.
.	16a	.	.
.	16g#	.	.
.	16f#	.	4c#
.	16e	.	.
.	16d	.	.
.	16c#	.	.
=34	=34	=34	=34
1ee_	16B	1dd	4r
.	16d#	.	.
.	16e	.	.
.	16f#	.	.
.	16g#	.	4B
.	16f#	.	.
.	16a	.	.
.	16g#	.	.
.	16b	.	4E
.	16a	.	.
.	16g#	.	.
.	16f#	.	.
.	16e	.	4G#
.	16d	.	.
.	16c#	.	.
.	16B	.	.
=35	=35	=35	=35
4ee]	16A	2cc#	4r
.	16c#	.	.
.	16e	.	.
.	16g#	.	.
4ee#	16a	.	4A
.	16b	.	.
.	16a	.	.
.	16g	.	.
4ff#	16f#	2dd	4D
.	16g	.	.
.	16f#	.	.
.	16e	.	.
4bb	16d	.	4B
.	16e	.	.
.	16f#	.	.
.	16d	.	.
=36	=36	=36	=36
4aa	16e	4cc#	4E
.	16dd#	.	.
.	16ee	.	.
.	16dd#	.	.
4gg#	16ee	4b	4.e
.	16ee#	.	.
.	16ff#	.	.
.	16ee	.	.
2r	16dd	2r	.
.	16cc#	.	.
.	16b	.	16d
.	16a	.	16c#
.	16g#	.	16B
.	16f#	.	16A
.	16e	.	16G#
.	16d	.	16B
=37	=37	=37	=37
[1eee	16c#	1cc#	4A
.	16e	.	.
.	16f#	.	.
.	16g#	.	.
.	16a	.	8.E
.	16g#	.	.
.	16cc#	.	.
.	16b	.	16C#
.	16a	.	4AA
.	16g#	.	.
.	16f#	.	.
.	16e	.	.
.	16d	.	4A
.	16c#	.	.
.	16B	.	.
.	16A	.	.
=38	=38	=38	=38
1eee_	16G#	1b	4E
.	16B	.	.
.	16e	.	.
.	16f#	.	.
.	16g#	.	8.BB
.	16f#	.	.
.	16b	.	.
.	16a	.	16GG#
.	16g#	.	4EE
.	16f#	.	.
.	16e	.	.
.	16d#	.	.
.	16c#	.	4E
.	16B	.	.
.	16A	.	.
.	16G#	.	.
=39	=39	=39	=39
8eee]	16A	8cc#	8AA
.	16c#	.	.
8ccc#	16e	8a	8r
.	16a	.	.
8ccc#	16c#	8a	8A
.	16f#	.	.
8aa	16a	8f#	8r
.	16cc#	.	.
8gg#	16B	8e	8B
.	16e	.	.
8r	16g#	8r	8r
.	16b	.	.
8ff#	16B	8d#	8BB
.	16d#	.	.
8r	16f#	8r	8r
.	16b	.	.
=40	=40	=40	=40
2ff#	16a	2d#	8E
.	16g#	.	.
.	16f#	.	8r
.	16e	.	.
.	16d#	.	8BB
.	16c#	.	.
.	16B	.	8r
.	16A	.	.
4ee	4G#	4e	4EE
4r	16g#	4r	4r
.	16a	.	.
.	16g#	.	.
.	16f#	.	.
=41	=41	=41	=41
1bb	16e	1g#	4r
.	16dd#	.	.
.	16ee	.	.
.	16dd#	.	.
.	16ee	.	4D
.	16dd#	.	.
.	16ee	.	.
.	16dd#	.	.
.	16ee	.	4d
.	16dd	.	.
.	16cc#	.	.
.	16b	.	.
.	16a	.	4D
.	16g#	.	.
.	16f#	.	.
.	16e	.	.
=42	=42	=42	=42
1ccc#	16e	2a	4r
.	16dd#	.	.
.	16ee	.	.
.	16dd#	.	.
.	16ee	.	4C#
.	16dd#	.	.
.	16ee	.	.
.	16dd#	.	.
.	16ee	2a#	4F#
.	16dd	.	.
.	16cc#	.	.
.	16b	.	.
.	16a#	.	4FF#
.	16g	.	.
.	16f#	.	.
.	16e	.	.
=43	=43	=43	=43
4ddd	16d	4b	4BB
.	16dd	.	.
.	16b	.	.
.	16a	.	.
4eee	16g	4cc#	4AA
.	16e	.	.
.	16a	.	.
.	16g	.	.
4fff#	16f#	4dd	2D
.	16e	.	.
.	16d	.	.
.	16e	.	.
4ddd	16f#	4b	.
.	16b	.	.
.	16dd	.	.
.	16ff#	.	.
=44	=44	=44	=44
2ccc#	16e	2a	4E
.	16d#	.	.
.	16e	.	.
.	16f#	.	.
.	16g#	.	4EE
.	16a	.	.
.	16b	.	.
.	16cc#	.	.
8bb	16dd	8g#	4E
.	16cc#	.	.
8ccc#	16b	8a	.
.	16a	.	.
8ddd	16g#	8b	4r
.	16f#	.	.
8ddd#	16e	8b#	.
.	16d	.	.
=45	=45	=45	=45
[1eee	16c#	1cc#	4r
.	16e	.	.
.	16f#	.	.
.	16g#	.	.
.	16a	.	4e
.	16g#	.	.
.	16b	.	.
.	16a	.	.
.	16cc#	.	4A
.	16b	.	.
.	16a	.	.
.	16g#	.	.
.	16f#	.	4c#
.	16e	.	.
.	16d	.	.
.	16c#	.	.
=46	=46	=46	=46
1eee_	16B	1dd	4r
.	16d#	.	.
.	16e	.	.
.	16f#	.	.
.	16g#	.	4B
.	16f#	.	.
.	16a	.	.
.	16g#	.	.
.	16b	.	4E
.	16a	.	.
.	16g#	.	.
.	16f#	.	.
.	16e	.	4G#
.	16d	.	.
.	16c#	.	.
.	16B	.	.
=47	=47	=47	=47
8.eee]	16A	8.cc#	8A
.	16c#	.	.
.	16e	.	8r
16ccc#	16a	16a	.
8.ddd	16B	8.ff#	8D
.	16d	.	.
.	16f#	.	8r
16bb	16b	16dd	.
8aa	16c#	8cc#	8E
.	16e	.	.
8r	16a	8r	8r
.	16cc#	.	.
8gg#	16d	8b	8E
.	16g#	.	.
8r	16b	8r	8r
.	16dd	.	.
=48	=48	=48	=48
2gg#	16dd	2b	8A
.	16cc#	.	.
.	16b	.	8r
.	16a	.	.
.	16g#	.	8E
.	16f#	.	.
.	16e	.	8r
.	16d	.	.
4aa	4c#	4a	4AA
4r	4r	16c#	4r
.	.	16d	.
.	.	16c#	.
.	.	16d	.
=49	=49	=49	=49
8r	8r	8f#	8r
8cc#	8a	8e	8A
8cc#	8a	4.e	8AA
8dd	8b	.	8A
4ee	4cc#	.	4AA
.	.	8cc#	.
4r	4r	8b	4r
.	.	8a	.
=50	=50	=50	=50
8r	8r	16g#	8r
.	.	16b	.
8gg#	8ee	16ee	8e
.	.	16dd	.
8gg#	8ee	[4dd	8E
8aa	8ff#	.	8e
4bb	4gg#	16dd]	4E
.	.	16cc#	.
.	.	16b	.
.	.	16a	.
4r	4r	16g#	4r
.	.	16f#	.
.	.	16e	.
.	.	16d	.
=51	=51	=51	=51
2ee	2.cc#	8c#	2A
.	.	16a	.
.	.	16b	.
.	.	16cc#	.
.	.	16b	.
.	.	16a	.
.	.	16g#	.
2aa	.	16b	2F#
.	.	16a	.
.	.	16g#	.
.	.	16f#	.
.	4dd#	16g#	.
.	.	16f#	.
.	.	16e	.
.	.	16d#	.
=52	=52	=52	=52
8r	8r	8f#	8r
8gg#	8ee	8e	8E
8gg#	8ee	[4e	8EE
8aa	8ff#	.	8E
4bb	4gg#	16e]	4EE
.	.	16e#	.
.	.	16f#	.
.	.	16d	.
4r	4r	16c#	4r
.	.	16e	.
.	.	16d	.
.	.	16f#	.
=53	=53	=53	=53
8r	8r	8d#	8r
8cc#	8a	8e	8A
8cc#	8a	4.e	8AA
8dd	8b	.	8A
4ee	4cc#	.	4AA
.	.	8a	.
4r	4r	8cc#	4r
.	.	8ee	.
=54	=54	=54	=54
8r	8r	8.ee	8r
8gg#	8ee	.	8E
.	.	16b	.
8gg#	8ee	4.b	8EE
8aa	8ff#	.	8E
4bb	4gg#	.	4EE
.	.	16cc#	.
.	.	16b	.
4r	4r	16a	4r
.	.	16g#	.
.	.	16f#	.
.	.	16e	.
=55	=55	=55	=55
8aa	8ff#	4d#	8B
8aa	8ff#	.	8B
8gg#	8ee	4e	8c#
8gg#	8ee	.	8c#
8aa	8cc#	8.f#	8A
8aa	8cc#	.	8A
.	.	16g#	.
8ff#	8dd#	8.a	8B
8ff#	8dd#	.	8B
.	.	16b	.
=56	=56	=56	=56
4ff#	4dd#	4a	8E
.	.	.	8E
4ee	4ee	4g#	8BB
.	.	.	8GG#
4r	4r	4r	4EE
4r	4r	16g#	4r
.	.	16a	.
.	.	16g#	.
.	.	16a	.
=57	=57	=57	=57
8r	8r	8cc#	8r
8gg#	8ee	8b	8d
8gg#	8ee	4.b	8D
8aa	8ff#	.	8d
4bb	4gg#	.	4D
.	.	16a#	.
.	.	16b	.
4r	4r	16a#	4r
.	.	16b	.
.	.	16dd	.
.	.	16cc#	.
=58	=58	=58	=58
8r	8r	8a#	8r
8gg#	8ee#	8b	8c#
8gg#	8ee#	4.b	8C#
8aa	8ff#	.	8c#
4bb	4gg#	.	4C#
.	.	16a#	.
.	.	16b	.
4r	4r	16a#	4r
.	.	16b	.
.	.	16dd	.
.	.	16b	.
=59	=59	=59	=59
4aa	[2cc# 2a	16g#	4F#
.	.	16a	.
.	.	16cc#	.
.	.	16a	.
4gg	.	16f#	4E
.	.	16g	.
.	.	16b	.
.	.	16g	.
8ff#	8dd 8a]	16e#	8D
.	.	16f#	.
8r	8r	16g#	8r
.	.	16a#	.
8ff#	8dd 8f#	16b	8BB
.	.	16cc#	.
8r	8r	16dd	8r
.	.	16b	.
=60	=60	=60	=60
8r	8r	16a	[2EE
.	.	16g#	.
8g#	8e	16cc#	.
.	.	16b	.
8g#	8e	16a	.
.	.	16g#	.
8a	8f#	16f#	.
.	.	16e	.
4b	4g#	16d#	8EE]
.	.	16e	.
.	.	16f#	4.r
.	.	16d	.
4r	4r	16c#	.
.	.	16d	.
.	.	16c#	.
.	.	16d	.
=61	=61	=61	=61
8r	8r	8f#	8r
8cc#	8a	8e	8A
8cc#	8a	4.e	8AA
8dd	8b	.	8A
4ee	4cc#	.	4AA
.	.	8cc#	.
4r	4r	8b	4r
.	.	8a	.
=62	=62	=62	=62
8r	8r	16g#	8r
.	.	16b	.
8gg#	8ee	16ee	8e
.	.	16dd	.
8gg#	8ee	[4dd	8E
8aa	8ff#	.	8e
4bb	4gg#	16dd]	4E
.	.	16cc#	.
.	.	16b	.
.	.	16a	.
4r	4r	16g#	4r
.	.	16f#	.
.	.	16e	.
.	.	16d	.
=63	=63	=63	=63
8aa	8cc#	8c#	8F#
8aa	8cc#	8a	8F#
8bb	8dd	8f#	8D
8bb	8ff#	8dd	8D
8aa	8cc#	4.e	8E
8aa	8cc#	.	8E
8gg#	8b	.	8EE
8gg#	8b	16f#	8EE
.	.	16g#	.
=64	=64	=64	=64
4gg#	4dd	4b	8AA
.	.	.	8A
4aa	4cc#	4a	8E
.	.	.	8C#
4r	4r	4r	4AA
4e	4r	4r	4r
=65	=65	=65	=65
4a	4.c#	1e	8r
.	.	.	16A
.	.	.	16B
8a	.	.	8c#
8b	8d	.	8G#
4cc#	2c#	.	8A
.	.	.	8E
8b	.	.	8C#
8a	.	.	8AA
=66	=66	=66	=66
4.ee	2d	2.b	8GG#
.	.	.	16B
.	.	.	16c#
.	.	.	8d
8ff#	.	.	8B
4ee	4dd	.	8G#
.	.	.	8E
4dd	8g#	[4e	8BB
.	8b	.	8GG#
=67	=67	=67	=67
4cc#	2.a	4e]	8AA
.	.	.	16E
.	.	.	16D
4ee	.	8A	8C#
.	.	8c#	8AA
4f#	.	4d	8D
.	.	.	16F#
.	.	.	16E
4ff#	8b	4f#	8D
.	8dd	.	8BB
=68	=68	=68	=68
2cc#	2a	[2e	8E
.	.	.	16E
.	.	.	16D#
.	.	.	8E
.	.	.	16E
.	.	.	16D#
4b	4g#	4e]	8E
.	.	.	16F#
.	.	.	16E
4e	4r	4r	8D
.	.	.	16C#
.	.	.	16BB
=69	=69	=69	=69
4.a	4.c#	2e	8AA
.	.	.	16A
.	.	.	16B
.	.	.	8c#
8b	8d	.	8G#
4cc#	2c#	[2e	8A
.	.	.	8E
8b	.	.	8C#
8a	.	.	8AA
=70	=70	=70	=70
4.b	2.B	2e]	8GG#
.	.	.	16G#
.	.	.	16A
.	.	.	8B
8ee	.	.	8G#
4ee	.	4g#	8E
.	.	.	8BB
4gg#	4b	4e	8GG#
.	.	.	8EE
=71	=71	=71	=71
4ff#	4a	2c#	8AA
.	.	.	16A
.	.	.	16G#
4aa	4cc#	.	8F#
.	.	.	8A
4dd#	4f#	4B	8B
.	.	.	16D#
.	.	.	16C#
4ff#	4a	4b	8BB
.	.	.	8D#
=72	=72	=72	=72
2ff#	2a	[2b	8E
.	.	.	16G#
.	.	.	16A
.	.	.	8B
.	.	.	16c#
.	.	.	16d#
4ee	4g#	4b]	4e
4b	4r	4r	4r
=73	=73	=73	=73
4.b	4.g#	[1e	8D
.	.	.	16B
.	.	.	16c#
.	.	.	8d
8cc#	8a	.	8c#
4dd	4b	.	8B
.	.	.	8G#
4b	4g#	.	8D
.	.	.	8BB
=74	=74	=74	=74
4.cc#	4.a	1e]	8AA
.	.	.	16c#
.	.	.	16d
.	.	.	8e
8dd	8b	.	8d
4ee	4cc#	.	8c#
.	.	.	8A
4cc#	4a#	.	8E
.	.	.	8C#
=75	=75	=75	=75
4.dd	4.b	1f#	8BB
.	.	.	16d
.	.	.	16e
.	.	.	8f#
8ee	8cc#	.	8e
4ff#	4dd	.	8d
.	.	.	8B
4dd	4b	.	8F#
.	.	.	8D
=76	=76	=76	=76
4.cc#	4.a	[2e	8E
.	.	.	16E
.	.	.	16D#
.	.	.	8E
8dd	8b	.	16E
.	.	.	16D#
4b	4g#	4e]	8E
.	.	.	16F#
.	.	.	16E
4e	4r	4r	8D
.	.	.	16C#
.	.	.	16BB
=77	=77	=77	=77
4.a	4.c#	1e	8AA
.	.	.	16A
.	.	.	16B
.	.	.	8c#
8b	8d	.	8G#
4cc#	2c#	.	8A
.	.	.	8E
8b	.	.	8C#
8a	.	.	8AA
=78	=78	=78	=78
4.ee	2d	2.b	8GG#
.	.	.	16B
.	.	.	16c#
.	.	.	8d
8ff#	.	.	8B
4ee	4dd	.	8G#
.	.	.	8E
4dd	8g#	4e	8BB
.	8b	.	8GG#
=79	=79	=79	=79
8cc#	4.a	8e	8AA
8ee	.	4A	16C#
.	.	.	16AA
8dd	.	.	8F#
8ff#	16f#	8a	16D
.	16d	.	16F#
4a	4c#	4e	8E
.	.	.	8D
4g#	4B	4e	8E
.	.	.	8EE
=80	=80	=80	=80
2b	2d	[2e	8AA
.	.	.	16C#
.	.	.	16D
.	.	.	8E
.	.	.	16F#
.	.	.	16G#
4a	4c#	4e]	4A
4r	4r	4r	4r
==	==	==	==
*-	*-	*-	*-
!!!RWG1: This file contains only pitch and duration data.
!!!RWG2: Transposing instruments are not transposed.
!!!RWG3: Spines may have incompatible meters.
!!!RWG4: Durations of rests and tied notes may be interpreted.
!!!RWG: Key is interpreted using the Humdrum key tool.
!!!AFT: stage1
!!!END: 1997/04/15
!!format changes:
!!content changes:
!!public access: complete
!!!KEY: 667651042
!!!EMD: Converted from MuseData to Humdrum Dec 16, 2000, by Andreas Kornstaedt using muse2kern.
